X:1
T:Title
%%score { 1 | 2 }
L:1/8
M:3/4
K:F
V:1 treble nm="Grand Piano"
V:2 bass 
V:1
 z2 z2[Q:1/4=100] C>F | A3 A c>F | A4 [GB]>[FA] | [EG]3 [Bd] [Ac]>[GB] |[M:2/4] A4 |[M:1/4] C>F | %6
[M:3/4] A3 A c>F | A4 A>A | G3 e d>=B |[M:2/4] [Ec]4 |[M:1/4] [Ed]>[Ec] | %11
[M:3/4] [Ec]2 [EG]2 [Fd]>[Fc] | [FA]4 [EA]>[Ec] | [Ae]2 A2 c>B |[M:2/4] [CA]4 |[M:1/4] C>F | %16
[M:3/4] A3 A c>F | A4 [Fd]>[Fd] | [Fc]3 [FA] [EB]>E |[M:2/4] F4 |] %20
V:2
 z2 z2 [F,A,]>[F,A,C] | [F,CF]3 [F,CF] [F,A,F]>[F,A,] | [F,CF]4 [C,C]>[C,C] | %3
 [C,C]3 [C,C] [D,C]>[E,C] |[M:2/4] [F,CF]4 |[M:1/4] [F,A,]>[F,A,C] | %6
[M:3/4] [F,CF]3 [F,CF] [F,A,F]>[F,A,] | [F,CF]4 [F,CF]>[F,CF] | [G,CE]3 [G,CG] [G,=B,F]>[G,DF] | %9
[M:2/4][K:bass] [C,C]4 |[M:1/4] [C,B,]>[C,B,] |[M:3/4] [C,B,]2 [C,B,]2 [C,A,]>[C,A,] | %12
 [C,C]4 [E,C]>[E,A,] | [E,C]2 [E,CE]2 [E,_A,E]>[E,A,D] |[M:2/4] [A,,A,]4 |[M:1/4] [F,A,]>[F,A,C] | %16
[M:3/4] [F,CF]3 [F,CF] [F,A,F]>[F,A,] | [F,CF]4 [=B,,_A,]>[B,,A,] | [C,A,]3 [C,C] [C,G,]>[C,B,C] | %19
[M:2/4] [F,A,C]4 |] %20

